svg/emoji_u1fa92.svg

<?xml version="1.0" encoding="UTF-8" standalone="no"?>
<!DOCTYPE svg PUBLIC "-//W3C//DTD SVG 1.1//EN" "http://www.w3.org/Graphics/SVG/1.1/DTD/svg11.dtd">
<svg width="100%" height="100%" viewBox="0 0 128 128" version="1.1" xmlns="http://www.w3.org/2000/svg" xmlns:xlink="http://www.w3.org/1999/xlink" xml:space="preserve" xmlns:serif="http://www.serif.com/" style="fill-rule:evenodd;clip-rule:evenodd;stroke-linejoin:round;stroke-miterlimit:2;">
    <g id="g38673">
        <path id="path38667" d="M17.34,121.34L12.98,117.99C9.87,114.98 7.86,110.55 10.12,107.93L52.99,53.04C53.75,52.18 55.77,50.15 57.72,48.75C67.72,41.59 79.02,33.33 79.02,33.33L91.46,44.08L69.53,62.29C68.21,63.1 66.77,65.04 66.77,65.04L28.07,121.83C25.77,124.91 20.78,124.68 17.34,121.34Z" style="fill:rgb(30,157,219);fill-rule:nonzero;"/>
        <path id="path38671" d="M97.08,72.05L52.88,29.38C50.6,27.17 50.97,23.1 53.7,20.28L67.12,6.49C69.85,3.67 73.91,3.17 76.19,5.38L120.39,48.05C122.67,50.26 122.3,54.33 119.57,57.15L106.16,70.94C103.42,73.76 99.36,74.26 97.08,72.05Z" style="fill:rgb(30,157,219);fill-rule:nonzero;"/>
    </g>
    <g id="g38691">
        <path id="path38675" d="M65.811,17.359L61.02,22.26C60.44,22.86 60.11,23.611 60.07,24.381C60.03,25.111 60.28,25.761 60.75,26.221L99.9,64.15C100.44,64.67 101.089,64.779 101.539,64.779C102.369,64.779 103.21,64.41 103.85,63.75L108.641,58.85L65.811,17.359Z" style="fill:rgb(236,240,241);fill-rule:nonzero;"/>
        <path id="path38677" d="M65.85,17.061L64.4,19C63.4,20.04 63.421,21.699 64.461,22.699L103.391,60.5C103.881,60.98 104.531,61.24 105.211,61.24C105.931,61.24 109.16,59.25 109.16,59.25L86.787,37.455L72.66,23.641L72.65,23.686L65.85,17.061Z" style="fill:rgb(236,240,241);fill-rule:nonzero;"/>
        <g transform="matrix(0.6957,-0.7184,0.7184,0.6957,4.4962,76.5996)">
            <g id="g38685">
                <rect id="rect38683" x="88.66" y="2.48" width="7.97" height="61.02" style="fill:rgb(186,227,245);"/>
            </g>
        </g>
        <path id="path38687" d="M105.7,60.08C104.49,60.21 102.88,58.52 101.92,57.59C100.02,55.75 68.95,25.73 67.2,23.97C65.94,22.7 64.28,21.31 64.94,19.6C65.25,18.8 66.31,17.31 66.37,17.04C66.52,16.42 66.28,16.33 65.89,16.68C65.62,16.92 64.39,18.23 64.02,18.61C62.64,20.04 62.68,22.31 64.1,23.69L102.77,61.14C103.47,61.82 104.46,62.15 105.36,62.15C106.91,62.15 108.73,60.15 109.18,59.69C110.09,58.75 109.72,58.21 108.49,58.84C108.18,59.01 106.95,59.95 105.7,60.08Z" style="fill:rgb(62,82,89);fill-rule:nonzero;"/>
        <path id="path38689" d="M101.84,63.86C100.63,63.94 99.11,62.3 98.15,61.37C96.25,59.53 65.21,29.47 63.43,27.75C62.33,26.69 60.44,25.16 61.16,23.38C61.48,22.58 62.53,21.09 62.6,20.82C62.75,20.2 62.51,20.11 62.12,20.46C61.85,20.7 60.62,22.01 60.25,22.39C58.87,23.82 58.91,26.09 60.33,27.47L99,64.92C99.7,65.6 100.6,65.93 101.5,65.93C103.05,65.93 104.96,63.93 105.4,63.47C106.31,62.53 105.94,61.99 104.71,62.62C104.4,62.79 103.23,63.77 101.84,63.86Z" style="fill:rgb(62,82,89);fill-rule:nonzero;"/>
    </g>
</svg>

<?xml version="1.0" encoding="utf-8"?>
<!-- Generator: Adobe Illustrator 25.2.3, SVG Export Plug-In . SVG Version: 6.00 Build 0)  -->
<svg version="1.1" id="Layer_3" xmlns="http://www.w3.org/2000/svg" xmlns:xlink="http://www.w3.org/1999/xlink" x="0px" y="0px"
	 viewBox="0 0 128 128" style="enable-background:new 0 0 128 128;" xml:space="preserve">
<g>
	<path style="fill:#26A69A;" d="M17.34,121.34l-4.36-3.35c-3.11-3.01-5.12-7.44-2.86-10.06l42.87-54.89
		c0.76-0.86,2.78-2.89,4.73-4.29c10-7.16,21.3-15.42,21.3-15.42l12.44,10.75L69.53,62.29c-1.32,0.81-2.76,2.75-2.76,2.75
		l-38.7,56.79C25.77,124.91,20.78,124.68,17.34,121.34z"/>
	<path style="fill:#00796B;" d="M64.6,43.81c0,0-2.64,5.66-2.73,9.35c-0.06,2.39,3.7,7.25,6.11,10.48l13.77-11.44L69.36,39.96
		L64.6,43.81z"/>
	<path style="fill:#26A69A;" d="M97.08,72.05l-44.2-42.67c-2.28-2.21-1.91-6.28,0.82-9.1L67.12,6.49c2.73-2.82,6.79-3.32,9.07-1.11
		l44.2,42.67c2.28,2.21,1.91,6.28-0.82,9.1l-13.41,13.79C103.42,73.76,99.36,74.26,97.08,72.05z"/>
</g>
<g>
	<path style="fill:#E0E0E0;" d="M101.54,64.78c-0.45,0-1.1-0.11-1.64-0.63L60.75,26.22c-0.47-0.46-0.72-1.11-0.68-1.84
		c0.04-0.77,0.37-1.52,0.95-2.12l4.79-4.9l42.83,41.49l-4.79,4.9C103.21,64.41,102.37,64.78,101.54,64.78z"/>
	<path style="fill:#E0E0E0;" d="M105.21,61.24c-0.68,0-1.33-0.26-1.82-0.74L64.46,22.7c-1.04-1-1.06-2.66-0.06-3.7l1.45-1.94
		l43.31,42.19C109.16,59.25,105.93,61.24,105.21,61.24z"/>
	<polygon style="fill:#FFFFFF;" points="97.81,61.94 74.14,38.27 75.09,33.7 98.76,57.37 	"/>
	<polygon style="fill:#FFFFFF;" points="95.38,51.89 71.62,28.62 72.66,23.64 96.31,46.77 	"/>
	<g>
		
			<rect x="88.66" y="2.48" transform="matrix(0.6957 -0.7184 0.7184 0.6957 4.4962 76.5996)" style="fill:#BAE2FD;" width="7.97" height="61.02"/>
	</g>
	<path style="fill:#424242;" d="M105.7,60.08c-1.21,0.13-2.82-1.56-3.78-2.49c-1.9-1.84-32.97-31.86-34.72-33.62
		c-1.26-1.27-2.92-2.66-2.26-4.37c0.31-0.8,1.37-2.29,1.43-2.56c0.15-0.62-0.09-0.71-0.48-0.36c-0.27,0.24-1.5,1.55-1.87,1.93
		c-1.38,1.43-1.34,3.7,0.08,5.08l38.67,37.45c0.7,0.68,1.69,1.01,2.59,1.01c1.55,0,3.37-2,3.82-2.46c0.91-0.94,0.54-1.48-0.69-0.85
		C108.18,59.01,106.95,59.95,105.7,60.08z"/>
	<path style="fill:#424242;" d="M101.84,63.86c-1.21,0.08-2.73-1.56-3.69-2.49c-1.9-1.84-32.94-31.9-34.72-33.62
		c-1.1-1.06-2.99-2.59-2.27-4.37c0.32-0.8,1.37-2.29,1.44-2.56c0.15-0.62-0.09-0.71-0.48-0.36c-0.27,0.24-1.5,1.55-1.87,1.93
		c-1.38,1.43-1.34,3.7,0.08,5.08L99,64.92c0.7,0.68,1.6,1.01,2.5,1.01c1.55,0,3.46-2,3.9-2.46c0.91-0.94,0.54-1.48-0.69-0.85
		C104.4,62.79,103.23,63.77,101.84,63.86z"/>
</g>
</svg>
